mimes/48/x-office-spreadsheet-template.svg

<?xml version="1.0" encoding="UTF-8" standalone="no"?>
<svg
   xmlns:dc="http://purl.org/dc/elements/1.1/"
   xmlns:cc="http://creativecommons.org/ns#"
   xmlns:rdf="http://www.w3.org/1999/02/22-rdf-syntax-ns#"
   xmlns:svg="http://www.w3.org/2000/svg"
   xmlns="http://www.w3.org/2000/svg"
   xmlns:xlink="http://www.w3.org/1999/xlink"
   version="1.1"
   width="48"
   height="48"
   id="svg4112">
  <defs
     id="defs4114">
    <linearGradient
       id="linearGradient3977">
      <stop
         id="stop3979"
         style="stop-color:#ffffff;stop-opacity:1"
         offset="0" />
      <stop
         id="stop3981"
         style="stop-color:#ffffff;stop-opacity:0.23529412"
         offset="0.03626217" />
      <stop
         id="stop3983"
         style="stop-color:#ffffff;stop-opacity:0.15686275"
         offset="0.95056331" />
      <stop
         id="stop3985"
         style="stop-color:#ffffff;stop-opacity:0.39215687"
         offset="1" />
    </linearGradient>
    <linearGradient
       id="linearGradient5060">
      <stop
         id="stop5062"
         style="stop-color:#000000;stop-opacity:1"
         offset="0" />
      <stop
         id="stop5064"
         style="stop-color:#000000;stop-opacity:0"
         offset="1" />
    </linearGradient>
    <linearGradient
       id="linearGradient5048">
      <stop
         id="stop5050"
         style="stop-color:#000000;stop-opacity:0"
         offset="0" />
      <stop
         id="stop5056"
         style="stop-color:#000000;stop-opacity:1"
         offset="0.5" />
      <stop
         id="stop5052"
         style="stop-color:#000000;stop-opacity:0"
         offset="1" />
    </linearGradient>
    <linearGradient
       id="linearGradient3242-7-3-8-0-4-58-06">
      <stop
         id="stop3244-5-8-5-6-4-3-8"
         style="stop-color:#cdf87e;stop-opacity:1"
         offset="0" />
      <stop
         id="stop3246-9-5-1-5-3-0-7"
         style="stop-color:#a2e34f;stop-opacity:1"
         offset="0.26238" />
      <stop
         id="stop3248-7-2-0-7-5-35-9"
         style="stop-color:#68b723;stop-opacity:1"
         offset="0.66093999" />
      <stop
         id="stop3250-8-2-8-5-6-40-4"
         style="stop-color:#1d7e0d;stop-opacity:1"
         offset="1" />
    </linearGradient>
    <radialGradient
       cx="11.789304"
       cy="15.03535"
       r="12.5"
       fx="11.789304"
       fy="15.03535"
       id="radialGradient3166"
       xlink:href="#linearGradient3242-7-3-8-0-4-58-06"
       gradientUnits="userSpaceOnUse"
       gradientTransform="matrix(0,5.7016975,-8.7110963,0,138.28319,-69.708283)" />
    <linearGradient
       x1="23.99999"
       y1="5.5641499"
       x2="23.99999"
       y2="43"
       id="linearGradient3169"
       xlink:href="#linearGradient3977"
       gradientUnits="userSpaceOnUse"
       gradientTransform="matrix(0.89189189,0,0,1.1351351,2.5945999,-4.7432315)" />
    <radialGradient
       cx="605.71429"
       cy="486.64789"
       r="117.14286"
       fx="605.71429"
       fy="486.64789"
       id="radialGradient3177"
       xlink:href="#linearGradient5060"
       gradientUnits="userSpaceOnUse"
       gradientTransform="matrix(0.02303995,0,0,0.01470022,26.360882,37.040176)" />
    <radialGradient
       cx="605.71429"
       cy="486.64789"
       r="117.14286"
       fx="605.71429"
       fy="486.64789"
       id="radialGradient3180"
       xlink:href="#linearGradient5060"
       gradientUnits="userSpaceOnUse"
       gradientTransform="matrix(-0.02303994,0,0,0.01470022,21.62311,37.040176)" />
    <linearGradient
       x1="302.85715"
       y1="366.64789"
       x2="302.85715"
       y2="609.50507"
       id="linearGradient3183"
       xlink:href="#linearGradient5048"
       gradientUnits="userSpaceOnUse"
       gradientTransform="matrix(0.06732488,0,0,0.01470022,-0.3411391,37.040146)" />
    <linearGradient
       id="linearGradient3104-6">
      <stop
         id="stop3106-3"
         style="stop-color:#000000;stop-opacity:0.31782946"
         offset="0" />
      <stop
         id="stop3108-9"
         style="stop-color:#000000;stop-opacity:0.24031007"
         offset="1" />
    </linearGradient>
    <linearGradient
       id="linearGradient3600-2">
      <stop
         id="stop3602-6"
         style="stop-color:#f4f4f4;stop-opacity:1"
         offset="0" />
      <stop
         id="stop3604-6"
         style="stop-color:#dbdbdb;stop-opacity:1"
         offset="1" />
    </linearGradient>
    <linearGradient
       x1="-51.786404"
       y1="50.786446"
       x2="-51.786404"
       y2="2.9062471"
       id="linearGradient4286"
       xlink:href="#linearGradient3104-6"
       gradientUnits="userSpaceOnUse"
       gradientTransform="matrix(0.80749686,0,0,0.89471714,59.410233,-2.9773424)" />
    <linearGradient
       x1="25.132275"
       y1="0.98520643"
       x2="25.132275"
       y2="47.013336"
       id="linearGradient4292"
       xlink:href="#linearGradient3600-2"
       gradientUnits="userSpaceOnUse"
       gradientTransform="matrix(0.97142632,0,0,0.93431938,0.68576796,-1.3569986)" />
    <radialGradient
       cx="605.71429"
       cy="486.64789"
       r="117.14286"
       fx="605.71429"
       fy="486.64789"
       id="radialGradient3907"
       xlink:href="#linearGradient5060-8"
       gradientUnits="userSpaceOnUse"
       gradientTransform="matrix(0.02303995,0,0,0.01470022,26.360882,36.963253)" />
    <linearGradient
       id="linearGradient5060-8">
      <stop
         id="stop5062-8"
         style="stop-color:#000000;stop-opacity:1"
         offset="0" />
      <stop
         id="stop5064-6"
         style="stop-color:#000000;stop-opacity:0"
         offset="1" />
    </linearGradient>
    <linearGradient
       x1="42.783993"
       y1="32.537422"
       x2="38.972309"
       y2="18.12406"
       id="linearGradient3909"
       xlink:href="#linearGradient3412"
       gradientUnits="userSpaceOnUse"
       gradientTransform="matrix(1.3333334,0,0,-1.3333334,-16.166666,70.166667)" />
    <linearGradient
       id="linearGradient3412">
      <stop
         id="stop3414"
         style="stop-color:#fcfcfc;stop-opacity:1"
         offset="0" />
      <stop
         id="stop3416"
         style="stop-color:#cbcdd9;stop-opacity:1"
         offset="1" />
    </linearGradient>
    <linearGradient
       x1="40.105618"
       y1="31.65719"
       x2="33.811069"
       y2="18.353575"
       id="linearGradient3911"
       xlink:href="#linearGradient3428"
       gradientUnits="userSpaceOnUse"
       gradientTransform="matrix(1.33,0,0,-1.33,-16.064999,70.028077)" />
    <linearGradient
       id="linearGradient3428">
      <stop
         id="stop3430"
         style="stop-color:#ffffff;stop-opacity:1"
         offset="0" />
      <stop
         id="stop3432"
         style="stop-color:#ffffff;stop-opacity:0"
         offset="1" />
    </linearGradient>
    <linearGradient
       id="linearGradient5060-0">
      <stop
         id="stop5062-81"
         style="stop-color:#000000;stop-opacity:1"
         offset="0" />
      <stop
         id="stop5064-3"
         style="stop-color:#000000;stop-opacity:0"
         offset="1" />
    </linearGradient>
    <radialGradient
       cx="605.71429"
       cy="486.64789"
       r="117.14286"
       fx="605.71429"
       fy="486.64789"
       id="radialGradient3091"
       xlink:href="#linearGradient5060-0"
       gradientUnits="userSpaceOnUse"
       gradientTransform="matrix(0.02303995,0,0,0.01470022,26.360882,37.040176)" />
  </defs>
  <metadata
     id="metadata4117">
    <rdf:RDF>
      <cc:Work
         rdf:about="">
        <dc:format>image/svg+xml</dc:format>
        <dc:type
           rdf:resource="http://purl.org/dc/dcmitype/StillImage" />
        <dc:title />
      </cc:Work>
    </rdf:RDF>
  </metadata>
  <rect
     width="32.508301"
     height="3.5700529"
     x="7.7378473"
     y="42.429947"
     id="rect2879"
     style="opacity:0.3;fill:url(#linearGradient3183);fill-opacity:1;fill-rule:nonzero;stroke:none;stroke-width:1;marker:none;visibility:visible;display:inline;overflow:visible" />
  <path
     d="m 7.7378475,42.430102 c 0,0 0,3.569856 0,3.569856 -1.1865002,0.0067 -2.8683795,-0.799823 -2.8683795,-1.785158 0,-0.985333 1.3240446,-1.784697 2.8683795,-1.784698 z"
     id="path2881"
     style="opacity:0.3;fill:url(#radialGradient3180);fill-opacity:1;fill-rule:nonzero;stroke:none;stroke-width:1;marker:none;visibility:visible;display:inline;overflow:visible" />
  <path
     d="m 7.000001,1.000001 c 7.791126,0 33.999959,0.00274 33.999959,0.00274 l 4.1e-5,42.99726 c 0,0 -22.666666,0 -34,0 0,-14.333334 0,-28.666667 0,-43.0000001 z"
     id="path4160-2"
     style="fill:url(#linearGradient4292);fill-opacity:1;stroke:none;display:inline" />
  <path
     d="m 6.499961,0.49996324 c 8.020289,0 35.000042,0.00298 35.000042,0.00298 l 3.7e-5,43.99709576 c 0,0 -23.333385,0 -35.000079,0 0,-14.666738 0,-29.333326 0,-43.99989236 z"
     id="path4160-6-1"
     style="fill:none;stroke:url(#linearGradient4286);stroke-width:0.99992192;stroke-linecap:butt;stroke-linejoin:round;stroke-miterlimit:4;stroke-opacity:1;stroke-dasharray:none;stroke-dashoffset:0;display:inline" />
  <path
     d="m 40.5,43.5 -33,0 0,-41.9999999 33,0 z"
     id="rect6741-1"
     style="fill:none;stroke:url(#linearGradient3169);stroke-width:1;stroke-linecap:round;stroke-linejoin:round;stroke-miterlimit:4;stroke-opacity:1;stroke-dasharray:none;stroke-dashoffset:0" />
  <path
     d="m 11,11.055433 4.964235,0 0,28.944567 L 11,40 z M 16.035765,7 36,7 36,11 16.035765,10.94457 z"
     id="path3897"
     style="fill:url(#radialGradient3166);fill-opacity:1;stroke:none;display:inline" />
  <rect
     width="5"
     height="5"
     x="11"
     y="6"
     id="rect3775"
     style="fill:#c4ec94;fill-opacity:1;stroke:none;display:inline" />
  <path
     d="m 35.99999,36.5 -23.999995,0 m 23.999995,-5 -23.999995,0 m 24.000015,-5 -24.000005,0 m 23.999985,-5 -23.999995,0 m 23.999995,-5 -23.999995,0 M 25.5,7 l 0,32"
     id="path3611"
     style="fill:none;stroke:#305d2c;stroke-width:0.99999994;stroke-linecap:butt;stroke-linejoin:miter;stroke-miterlimit:4;stroke-opacity:0.3241762;stroke-dasharray:none;display:inline" />
  <path
     d="M 12.499999,7.5312499 35.499998,7.494761"
     id="path4743"
     style="opacity:0.2;fill:#ffffff;fill-rule:evenodd;stroke:#ffffff;stroke-width:0.99999994;stroke-linecap:square;stroke-linejoin:round;stroke-miterlimit:4;stroke-opacity:1;stroke-dasharray:none;display:inline" />
  <path
     d="m 11.5,6.5 25,0 0,33 -25,0 z m 24.999999,4 -24.999861,0 M 15.5,6.5021773 l 0,32.9956437"
     id="rect3580"
     style="opacity:0.4;color:#000000;fill:none;stroke:#0a3900;stroke-width:0.99999994;stroke-linecap:round;stroke-linejoin:miter;stroke-miterlimit:4;stroke-opacity:1;stroke-dasharray:none;stroke-dashoffset:0;marker:none;visibility:visible;display:inline;overflow:visible;enable-background:accumulate" />
  <path
     d="m 40.246148,42.430102 c 0,0 0,3.569856 0,3.569856 1.1865,0.0067 2.86838,-0.799823 2.86838,-1.785158 0,-0.985333 -1.324045,-1.784697 -2.86838,-1.784698 z"
     id="path2883"
     style="opacity:0.3;fill:url(#radialGradient3091);fill-opacity:1;fill-rule:nonzero;stroke:none;stroke-width:1;marker:none;visibility:visible;display:inline;overflow:visible" />
  <g
     transform="translate(-2.000001,0)"
     id="g3896">
    <path
       d="m 40.246148,42.353179 c 0,0 0,3.569856 0,3.569856 1.1865,0.0067 2.86838,-0.799823 2.86838,-1.785158 0,-0.985333 -1.324045,-1.784697 -2.86838,-1.784698 z"
       id="path2883-1"
       style="opacity:0.3;fill:url(#radialGradient3907);fill-opacity:1;fill-rule:nonzero;stroke:none;stroke-width:1;marker:none;visibility:visible;display:inline;overflow:visible" />
    <path
       d="m 24.500001,45.5 20.000001,-20.000001 0,20.000001 -20.000001,0 z m 9.333333,-4.000001 6.666667,0 0,-6.666666 -6.666667,6.666666 z"
       id="path3410"
       style="opacity:0.8;fill:url(#linearGradient3909);fill-opacity:1;fill-rule:evenodd;stroke:#83899a;stroke-width:1;stroke-linecap:butt;stroke-linejoin:miter;stroke-miterlimit:4;stroke-opacity:1;stroke-dasharray:none" />
    <path
       d="m 27.450938,44.217765 15.79375,-15.793751 0,15.793751 -15.79375,0 z"
       id="path3424"
       style="opacity:0.4;fill:none;stroke:url(#linearGradient3911);stroke-width:1;stroke-linecap:butt;stroke-linejoin:miter;stroke-miterlimit:4;stroke-opacity:1;stroke-dasharray:none" />
    <path
       d="M 29.5,44.346154 29.5,45.5"
       id="path3082"
       style="opacity:0.6;fill:none;stroke:#83899a;stroke-width:1px;stroke-linecap:square;stroke-linejoin:miter;stroke-opacity:1" />
    <path
       d="M 34.5,44.346154 34.5,45.5"
       id="path3854"
       style="opacity:0.6;fill:none;stroke:#83899a;stroke-width:1px;stroke-linecap:square;stroke-linejoin:miter;stroke-opacity:1" />
    <path
       d="M 39.5,44.346154 39.5,45.5"
       id="path3856"
       style="opacity:0.6;fill:none;stroke:#83899a;stroke-width:1px;stroke-linecap:square;stroke-linejoin:miter;stroke-opacity:1" />
    <path
       d="m 44.50049,35.423077 -1.00049,0"
       id="path3858"
       style="opacity:0.6;fill:none;stroke:#83899a;stroke-width:1px;stroke-linecap:square;stroke-linejoin:miter;stroke-opacity:1" />
    <path
       d="m 44.50049,40.423077 -1.00049,0"
       id="path3860"
       style="opacity:0.6;fill:none;stroke:#83899a;stroke-width:1px;stroke-linecap:square;stroke-linejoin:miter;stroke-opacity:1" />
    <path
       d="m 44.50049,30.423077 -1.00049,0"
       id="path3862"
       style="opacity:0.6;fill:none;stroke:#83899a;stroke-width:1px;stroke-linecap:square;stroke-linejoin:miter;stroke-opacity:1" />
  </g>
</svg>

<svg xmlns="http://www.w3.org/2000/svg" xmlns:xlink="http://www.w3.org/1999/xlink" viewBox="0 0 48 48"><defs><linearGradient id="b"><stop offset="0" stop-color="#fff"/><stop offset=".036" stop-color="#fff" stop-opacity=".235"/><stop offset=".951" stop-color="#fff" stop-opacity=".157"/><stop offset="1" stop-color="#fff" stop-opacity=".392"/></linearGradient><linearGradient id="c"><stop offset="0"/><stop offset="1" stop-opacity="0"/></linearGradient><linearGradient id="d"><stop offset="0" stop-opacity="0"/><stop offset=".5"/><stop offset="1" stop-opacity="0"/></linearGradient><linearGradient id="a"><stop offset="0" stop-color="#cdf87e"/><stop offset=".262" stop-color="#a2e34f"/><stop offset=".661" stop-color="#68b723"/><stop offset="1" stop-color="#1d7e0d"/></linearGradient><radialGradient cx="11.789" cy="15.035" r="12.5" fx="11.789" fy="15.035" id="p" xlink:href="#a" gradientUnits="userSpaceOnUse" gradientTransform="matrix(0 5.7017 -8.711 0 138.283 -69.708)"/><linearGradient x1="24" y1="5.564" x2="24" y2="43" id="o" xlink:href="#b" gradientUnits="userSpaceOnUse" gradientTransform="matrix(.8919 0 0 1.13514 2.595 -4.743)"/><radialGradient cx="605.714" cy="486.648" r="117.143" fx="605.714" fy="486.648" id="l" xlink:href="#c" gradientUnits="userSpaceOnUse" gradientTransform="matrix(-.02304 0 0 .0147 21.623 37.04)"/><linearGradient x1="302.857" y1="366.648" x2="302.857" y2="609.505" id="k" xlink:href="#d" gradientUnits="userSpaceOnUse" gradientTransform="matrix(.06732 0 0 .0147 -.34 37.04)"/><linearGradient id="e"><stop offset="0" stop-opacity=".318"/><stop offset="1" stop-opacity=".24"/></linearGradient><linearGradient id="f"><stop offset="0" stop-color="#f4f4f4"/><stop offset="1" stop-color="#dbdbdb"/></linearGradient><linearGradient x1="-51.786" y1="50.786" x2="-51.786" y2="2.906" id="n" xlink:href="#e" gradientUnits="userSpaceOnUse" gradientTransform="matrix(.8075 0 0 .89472 59.41 -2.977)"/><linearGradient x1="25.132" y1=".985" x2="25.132" y2="47.013" id="m" xlink:href="#f" gradientUnits="userSpaceOnUse" gradientTransform="matrix(.97143 0 0 .93432 .686 -1.357)"/><radialGradient cx="605.714" cy="486.648" r="117.143" fx="605.714" fy="486.648" id="r" xlink:href="#g" gradientUnits="userSpaceOnUse" gradientTransform="matrix(.02304 0 0 .0147 26.36 36.963)"/><linearGradient id="g"><stop offset="0"/><stop offset="1" stop-opacity="0"/></linearGradient><linearGradient x1="42.784" y1="32.537" x2="38.972" y2="18.124" id="s" xlink:href="#h" gradientUnits="userSpaceOnUse" gradientTransform="matrix(1.33333 0 0 -1.33333 -16.167 70.167)"/><linearGradient id="h"><stop offset="0" stop-color="#fcfcfc"/><stop offset="1" stop-color="#cbcdd9"/></linearGradient><linearGradient x1="40.106" y1="31.657" x2="33.811" y2="18.354" id="t" xlink:href="#i" gradientUnits="userSpaceOnUse" gradientTransform="matrix(1.33 0 0 -1.33 -16.065 70.028)"/><linearGradient id="i"><stop offset="0" stop-color="#fff"/><stop offset="1" stop-color="#fff" stop-opacity="0"/></linearGradient><linearGradient id="j"><stop offset="0"/><stop offset="1" stop-opacity="0"/></linearGradient><radialGradient cx="605.714" cy="486.648" r="117.143" fx="605.714" fy="486.648" id="q" xlink:href="#j" gradientUnits="userSpaceOnUse" gradientTransform="matrix(.02304 0 0 .0147 26.36 37.04)"/></defs><path opacity=".3" fill="url(#k)" overflow="visible" d="M7.738 42.43h32.508V46H7.738z"/><path d="M7.738 42.43V46c-1.187.007-2.87-.8-2.87-1.785 0-.986 1.326-1.785 2.87-1.785z" opacity=".3" fill="url(#l)" overflow="visible"/><path d="M7 1l34 .003V44H7V1z" fill="url(#m)"/><path d="M6.5.5l35 .003V44.5h-35V.5z" fill="none" stroke="url(#n)" stroke-linejoin="round"/><path d="M40.5 43.5h-33v-42h33z" fill="none" stroke="url(#o)" stroke-linecap="round" stroke-linejoin="round"/><path d="M11 11.055h4.964V40H11zM16.036 7H36v4l-19.964-.055z" fill="url(#p)"/><path fill="#c4ec94" d="M11 6h5v5h-5z"/><path d="M36 36.5H12m24-5H12m24-5H12m24-5H12m24-5H12M25.5 7v32" fill="none" stroke="#305d2c" stroke-opacity=".324"/><path d="M12.5 7.53l23-.035" opacity=".2" fill="#fff" fill-rule="evenodd" stroke="#fff" stroke-linecap="square" stroke-linejoin="round"/><path d="M11.5 6.5h25v33h-25zm25 4h-25m4-3.998v32.996" opacity=".4" color="#000" fill="none" stroke="#0a3900" stroke-linecap="round" overflow="visible"/><path d="M40.246 42.43V46c1.187.007 2.87-.8 2.87-1.785 0-.986-1.326-1.785-2.87-1.785z" opacity=".3" fill="url(#q)" overflow="visible"/><path d="M40.246 42.353v3.57c1.187.007 2.87-.8 2.87-1.785 0-.985-1.326-1.785-2.87-1.785z" opacity=".3" fill="url(#r)" overflow="visible" transform="translate(-2)"/><path d="M24.5 45.5l20-20v20h-20zm9.333-4H40.5v-6.667L33.833 41.5z" opacity=".8" fill="url(#s)" fill-rule="evenodd" stroke="#83899a" transform="translate(-2)"/><path d="M27.45 44.218l15.795-15.794v15.794H27.45z" opacity=".4" fill="none" stroke="url(#t)" transform="translate(-2)"/><path d="M27.5 44.346V45.5m5-1.154V45.5m5-1.154V45.5m5-10.077h-1m1 5h-1m1-10h-1" opacity=".6" fill="none" stroke="#83899a" stroke-linecap="square"/></svg>
